**harm	**harte	**timestamp	**phrase	**leadinstrument	**kern
*M4/4	*M4/4	*	*	*	*
*d:	*d:	*	*	*	*d:
1r;	N	0	.	r	1r;
=1	=1	=1	=1	=1	=1
*>A_intro	*>A_intro	*>A_intro	*>A_intro	*>A_intro	*>A_intro
1i	D:min	0.302	newline	r	1D 1f 1a
=2	=2	=2	=2	=2	=2
1v	A:min	2.433	.	r	1A 1cc 1ee
=3	=3	=3	=3	=3	=3
1IV	G:maj	4.564	.	r	1G 1b 1dd
=4	=4	=4	=4	=4	=4
1IV	G:maj	6.694	.	r	1G 1b 1dd
=5	=5	=5	=5	=5	=5
1i	D:min	8.825	newline	r	1D 1f 1a
=6	=6	=6	=6	=6	=6
1v	A:min	10.884	.	r	1A 1cc 1ee
=7	=7	=7	=7	=7	=7
1IV	G:maj	12.943	.	r	1G 1b 1dd
=8	=8	=8	=8	=8	=8
1IV	G:maj	15.002	.	r	1G 1b 1dd
=9	=9	=9	=9	=9	=9
*>B_verse	*>B_verse	*>B_verse	*>B_verse	*>B_verse	*>B_verse
1i	D:min	17.061	newline	voice	1D 1f 1a
=10	=10	=10	=10	=10	=10
1v	A:min	19.066	.	voice	1A 1cc 1ee
=11	=11	=11	=11	=11	=11
1IV	G:maj	21.071	.	voice	1G 1b 1dd
=12	=12	=12	=12	=12	=12
1IV	G:maj	23.076	.	voice	1G 1b 1dd
=13	=13	=13	=13	=13	=13
1i	D:min	25.081	newline	voice	1D 1f 1a
=14	=14	=14	=14	=14	=14
1v	A:min	27.073	.	voice	1A 1cc 1ee
=15	=15	=15	=15	=15	=15
1IV	G:maj	29.065	.	voice	1G 1b 1dd
=16	=16	=16	=16	=16	=16
1IV	G:maj	31.057	.	voice	1G 1b 1dd
=17	=17	=17	=17	=17	=17
*>C_chorus	*>C_chorus	*>C_chorus	*>C_chorus	*>C_chorus	*>C_chorus
1v	A:min	33.049	newline	voice	1A 1cc 1ee
=18	=18	=18	=18	=18	=18
2-III	F:maj	35.033	.	voice	2F- 2a- 2cc-
2IV	G:maj	36.025	.	voice	2G 2b 2dd
=19	=19	=19	=19	=19	=19
1v	A:min	37.017	.	voice	1A 1cc 1ee
=20	=20	=20	=20	=20	=20
2-III	F:maj	39.001	.	voice	2F- 2a- 2cc-
2IV	G:maj	39.993	.	voice	2G 2b 2dd
=21	=21	=21	=21	=21	=21
1v	A:min	40.985	newline	voice	1A 1cc 1ee
=22	=22	=22	=22	=22	=22
2-III	F:maj	42.964	.	voice	2F- 2a- 2cc-
2IV	G:maj	43.954	.	voice	2G 2b 2dd
=23	=23	=23	=23	=23	=23
1v	A:min	44.943	.	voice	1A 1cc 1ee
=24	=24	=24	=24	=24	=24
1v	A:min	46.923	.	voice	1A 1cc 1ee
=25	=25	=25	=25	=25	=25
*>B_verse	*>B_verse	*>B_verse	*>B_verse	*>B_verse	*>B_verse
1i	D:min	48.902	newline	voice	1D 1f 1a
=26	=26	=26	=26	=26	=26
1v	A:min	50.887	.	voice	1A 1cc 1ee
=27	=27	=27	=27	=27	=27
1IV	G:maj	52.873	.	voice	1G 1b 1dd
=28	=28	=28	=28	=28	=28
1IV	G:maj	54.858	.	voice	1G 1b 1dd
=29	=29	=29	=29	=29	=29
1i	D:min	56.843	newline	voice	1D 1f 1a
=30	=30	=30	=30	=30	=30
1v	A:min	58.842	.	voice	1A 1cc 1ee
=31	=31	=31	=31	=31	=31
1IV	G:maj	60.842	.	voice	1G 1b 1dd
=32	=32	=32	=32	=32	=32
1IV	G:maj	62.841	.	voice	1G 1b 1dd
=33	=33	=33	=33	=33	=33
*>C_chorus	*>C_chorus	*>C_chorus	*>C_chorus	*>C_chorus	*>C_chorus
1v	A:min	64.841	newline	voice	1A 1cc 1ee
=34	=34	=34	=34	=34	=34
2-III	F:maj	66.825	.	voice	2F- 2a- 2cc-
2IV	G:maj	67.818	.	voice	2G 2b 2dd
=35	=35	=35	=35	=35	=35
1v	A:min	68.81	.	voice	1A 1cc 1ee
=36	=36	=36	=36	=36	=36
2-III	F:maj	70.795	.	voice	2F- 2a- 2cc-
2IV	G:maj	71.787	.	voice	2G 2b 2dd
=37	=37	=37	=37	=37	=37
1v	A:min	72.779	newline	voice	1A 1cc 1ee
=38	=38	=38	=38	=38	=38
2-III	F:maj	74.763	.	voice	2F- 2a- 2cc-
2IV	G:maj	75.755	.	voice	2G 2b 2dd
=39	=39	=39	=39	=39	=39
1v	A:min	76.747	.	voice	1A 1cc 1ee
=40	=40	=40	=40	=40	=40
1v	A:min	78.731	.	voice	1A 1cc 1ee
=41	=41	=41	=41	=41	=41
*>B_solo	*>B_solo	*>B_solo	*>B_solo	*>B_solo	*>B_solo
1i	D:min	80.715	newline	guitar	1D 1f 1a
=42	=42	=42	=42	=42	=42
1v	A:min	82.724	.	guitar	1A 1cc 1ee
=43	=43	=43	=43	=43	=43
1IV	G:maj	84.733	.	guitar	1G 1b 1dd
=44	=44	=44	=44	=44	=44
1IV	G:maj	86.742	.	guitar	1G 1b 1dd
=45	=45	=45	=45	=45	=45
1i	D:min	88.751	newline	guitar	1D 1f 1a
=46	=46	=46	=46	=46	=46
1v	A:min	90.738	.	guitar	1A 1cc 1ee
=47	=47	=47	=47	=47	=47
1IV	G:maj	92.724	.	guitar	1G 1b 1dd
=48	=48	=48	=48	=48	=48
1IV	G:maj	94.71	.	guitar	1G 1b 1dd
=49	=49	=49	=49	=49	=49
*>C_chorus	*>C_chorus	*>C_chorus	*>C_chorus	*>C_chorus	*>C_chorus
1v	A:min	96.697	newline	voice	1A 1cc 1ee
=50	=50	=50	=50	=50	=50
2-III	F:maj	98.687	.	voice	2F- 2a- 2cc-
2IV	G:maj	99.682	.	voice	2G 2b 2dd
=51	=51	=51	=51	=51	=51
1v	A:min	100.677	.	voice	1A 1cc 1ee
=52	=52	=52	=52	=52	=52
2-III	F:maj	102.668	.	voice	2F- 2a- 2cc-
2IV	G:maj	103.663	.	voice	2G 2b 2dd
=53	=53	=53	=53	=53	=53
1v	A:min	104.658	newline	voice	1A 1cc 1ee
=54	=54	=54	=54	=54	=54
2-III	F:maj	106.638	.	voice	2F- 2a- 2cc-
2IV	G:maj	107.628	.	voice	2G 2b 2dd
=55	=55	=55	=55	=55	=55
1v	A:min	108.617	.	voice	1A 1cc 1ee
=56	=56	=56	=56	=56	=56
1v	A:min	110.597	.	voice	1A 1cc 1ee
=57	=57	=57	=57	=57	=57
*>B_verse	*>B_verse	*>B_verse	*>B_verse	*>B_verse	*>B_verse
1i7	D:min7	112.577	newline	voice	1D 1f 1a 1cc#
=58	=58	=58	=58	=58	=58
1v7	A:min7	114.567	.	voice	1A 1cc 1ee 1gg
=59	=59	=59	=59	=59	=59
1IV7	G:7	116.558	.	voice	1G 1b 1dd 1ff
=60	=60	=60	=60	=60	=60
1IV7	G:7	118.548	.	voice	1G 1b 1dd 1ff
=61	=61	=61	=61	=61	=61
1i7	D:min7	120.539	newline	voice	1D 1f 1a 1cc#
=62	=62	=62	=62	=62	=62
1v7	A:min7	122.521	.	voice	1A 1cc 1ee 1gg
=63	=63	=63	=63	=63	=63
1IV7	G:7	124.503	.	voice	1G 1b 1dd 1ff
=64	=64	=64	=64	=64	=64
1IV7	G:7	126.485	.	voice	1G 1b 1dd 1ff
=65	=65	=65	=65	=65	=65
*>C2_chorus	*>C2_chorus	*>C2_chorus	*>C2_chorus	*>C2_chorus	*>C2_chorus
1v	A:min	128.467	newline	voice	1A 1cc 1ee
=66	=66	=66	=66	=66	=66
2-III	F:maj	130.467	.	voice	2F- 2a- 2cc-
2IV	G:maj	131.467	.	voice	2G 2b 2dd
=67	=67	=67	=67	=67	=67
1v	A:min	132.466	.	voice	1A 1cc 1ee
=68	=68	=68	=68	=68	=68
2-III	F:maj	134.466	.	voice	2F- 2a- 2cc-
2IV	G:maj	135.466	.	voice	2G 2b 2dd
=69	=69	=69	=69	=69	=69
1v	A:min	136.465	newline	voice	1A 1cc 1ee
=70	=70	=70	=70	=70	=70
2-III	F:maj	138.457	.	voice	2F- 2a- 2cc-
2IV	G:maj	139.453	.	voice	2G 2b 2dd
=71	=71	=71	=71	=71	=71
1v	A:min	140.449	.	voice	1A 1cc 1ee
=72	=72	=72	=72	=72	=72
2-III	F:maj	142.441	.	voice	2F- 2a- 2cc-
2IV	G:maj	143.437	.	voice	2G 2b 2dd
=73	=73	=73	=73	=73	=73
1v	A:min	144.433	newline	voice	1A 1cc 1ee
=74	=74	=74	=74	=74	=74
2-III	F:maj	146.398	.	voice	2F- 2a- 2cc-
2IV	G:maj	147.381	.	voice	2G 2b 2dd
=75	=75	=75	=75	=75	=75
1v	A:min	148.364	.	voice	1A 1cc 1ee
=76	=76	=76	=76	=76	=76
2-III	F:maj	150.33	.	voice	2F- 2a- 2cc-
2IV	G:maj	151.313	.	voice	2G 2b 2dd
=77	=77	=77	=77	=77	=77
1v	A:min	152.295	newline	voice	1A 1cc 1ee
=78	=78	=78	=78	=78	=78
2-III	F:maj	154.282	.	voice	2F- 2a- 2cc-
2IV	G:maj	155.275	.	voice	2G 2b 2dd
=79	=79	=79	=79	=79	=79
1v	A:min	156.269	.	voice	1A 1cc 1ee
=80	=80	=80	=80	=80	=80
2-III	F:maj	158.255	.	voice	2F- 2a- 2cc-
2IV	G:maj	159.249	.	voice	2G 2b 2dd
=81	=81	=81	=81	=81	=81
1v	A:min	160.242	newline	voice	1A 1cc 1ee
=82	=82	=82	=82	=82	=82
2-III	F:maj	162.218	.	voice	2F- 2a- 2cc-
2IV	G:maj	163.206	.	voice	2G 2b 2dd
=83	=83	=83	=83	=83	=83
1v	A:min	164.194	.	voice	1A 1cc 1ee
=84	=84	=84	=84	=84	=84
2-III	F:maj	166.17	.	voice	2F- 2a- 2cc-
2IV	G:maj	167.158	.	voice	2G 2b 2dd
=85	=85	=85	=85	=85	=85
1v	A:min	168.146	newline	voice	1A 1cc 1ee
=86	=86	=86	=86	=86	=86
2-III	F:maj	170.111	.	voice	2F- 2a- 2cc-
2IV	G:maj	171.094	.	voice	2G 2b 2dd
=87	=87	=87	=87	=87	=87
1v	A:min	172.077	.	voice	1A 1cc 1ee
=88	=88	=88	=88	=88	=88
2-III	F:maj	174.043	.	voice	2F- 2a- 2cc-
2IV	G:maj	175.025	.	voice	2G 2b 2dd
=89	=89	=89	=89	=89	=89
1v	A:min	176.008	newline	voice	1A 1cc 1ee
=90	=90	=90	=90	=90	=90
2-III	F:maj	178.028	.	voice	2F- 2a- 2cc-
2IV	G:maj	179.038	.	voice	2G 2b 2dd
=91	=91	=91	=91	=91	=91
1v	A:min	180.048	.	voice	1A 1cc 1ee
=92	=92	=92	=92	=92	=92
2-III	F:maj	182.069	.	voice	2F- 2a- 2cc-
2IV	G:maj	183.079	.	voice	2G 2b 2dd
=93	=93	=93	=93	=93	=93
1v	A:min	184.089	newline	voice	1A 1cc 1ee
=94	=94	=94	=94	=94	=94
2-III	F:maj	186.113	.	voice	2F- 2a- 2cc-
2IV	G:maj	187.125	.	voice	2G 2b 2dd
=95	=95	=95	=95	=95	=95
1v	A:min	188.137	.	voice	1A 1cc 1ee
=96	=96	=96	=96	=96	=96
2-III	F:maj	190.161	.	voice	2F- 2a- 2cc-
2IV	G:maj	191.173	.	voice	2G 2b 2dd
=97	=97	=97	=97	=97	=97
1v	A:min	192.186	newline	voice	1A 1cc 1ee
=98	=98	=98	=98	=98	=98
2-III	F:maj	194.173	.	voice	2F- 2a- 2cc-
2IV	G:maj	195.167	.	voice	2G 2b 2dd
=99	=99	=99	=99	=99	=99
1v	A:min	196.16	.	voice	1A 1cc 1ee
=100	=100	=100	=100	=100	=100
2-III	F:maj	198.148	.	voice	2F- 2a- 2cc-
2IV	G:maj	199.141	.	voice	2G 2b 2dd
=101	=101	=101	=101	=101	=101
1v	A:min	200.135	newline	voice	1A 1cc 1ee
=102	=102	=102	=102	=102	=102
2-III	F:maj	202.097	.	voice	2F- 2a- 2cc-
2IV	G:maj	203.077	.	voice	2G 2b 2dd
=103	=103	=103	=103	=103	=103
1v	A:min	204.058	.	voice	1A 1cc 1ee
=104	=104	=104	=104	=104	=104
2-III	F:maj	206.02	.	voice	2F- 2a- 2cc-
2IV	G:maj	207.001	.	voice	2G 2b 2dd
=105	=105	=105	=105	=105	=105
1v	A:min	207.982	newline	voice	1A 1cc 1ee
=106	=106	=106	=106	=106	=106
2-III	F:maj	209.965	.	voice	2F- 2a- 2cc-
2IV	G:maj	210.956	.	voice	2G 2b 2dd
=107	=107	=107	=107	=107	=107
1v	A:min	211.948	.	voice	1A 1cc 1ee
=108	=108	=108	=108	=108	=108
2-III	F:maj	213.931	.	voice	2F- 2a- 2cc-
2IV	G:maj	214.923	.	voice	2G 2b 2dd
=109	=109	=109	=109	=109	=109
1v	A:min	215.914	newline	voice	1A 1cc 1ee
=110	=110	=110	=110	=110	=110
2-III	F:maj	217.883	.	voice	2F- 2a- 2cc-
2IV	G:maj	218.867	.	voice	2G 2b 2dd
=111	=111	=111	=111	=111	=111
1v	A:min	219.852	.	voice	1A 1cc 1ee
=112	=112	=112	=112	=112	=112
2-III	F:maj	221.82	.	voice	2F- 2a- 2cc-
2IV	G:maj	222.805	.	voice	2G 2b 2dd
=113	=113	=113	=113	=113	=113
1v	A:min	223.789	newline	voice	1A 1cc 1ee
=114	=114	=114	=114	=114	=114
2-III	F:maj	225.737	.	voice	2F- 2a- 2cc-
2IV	G:maj	226.712	.	voice	2G 2b 2dd
=115	=115	=115	=115	=115	=115
1v	A:min	227.686	.	voice	1A 1cc 1ee
=116	=116	=116	=116	=116	=116
2-III	F:maj	229.634	.	voice	2F- 2a- 2cc-
2IV	G:maj	230.609	.	voice	2G 2b 2dd
=117	=117	=117	=117	=117	=117
*>_fadeout	*>_fadeout	*>_fadeout	*>_fadeout	*>_fadeout	*>_fadeout
1v	A:min	231.583	newline	voice	1A 1cc 1ee
=118	=118	=118	=118	=118	=118
2-III	F:maj	233.556	.	voice	2F- 2a- 2cc-
2IV	G:maj	234.543	.	voice	2G 2b 2dd
=119	=119	=119	=119	=119	=119
1v	A:min	235.529	.	voice	1A 1cc 1ee
=120	=120	=120	=120	=120	=120
2-III	F:maj	237.503	.	voice	2F- 2a- 2cc-
2IV	G:maj	238.489	.	voice	2G 2b 2dd
=121	=121	=121	=121	=121	=121
1v	A:min	239.476	newline	voice	1A 1cc 1ee
=122	=122	=122	=122	=122	=122
2-III	F:maj	241.5	.	voice	2F- 2a- 2cc-
2IV	G:maj	242.512	.	voice	2G 2b 2dd
=123	=123	=123	=123	=123	=123
1v	A:min	243.524	.	voice	1A 1cc 1ee
=124	=124	=124	=124	=124	=124
2-III	F:maj	245.548	.	voice	2F- 2a- 2cc-
2IV	G:maj	246.56	.	voice	2G 2b 2dd
1r;	N	247.572	.	r	1r;
1r;	N	250.118	.	r	1r;
*-	*-	*-	*-	*-	*-
!!!OTL: I Can't Stand It
!!!COC: Eric Clapton
!!!BillboardChartDate: 1981/04/25
!!!BillboardPeak: 10
!!!BillboardWeeksOnChart: 17
!!!SampleTargetRank: 11
!!!SampleActualRank: 11
!!!SampleID#: 0898
!!!RDF**harmony: **recip + pitch class of root + harmonic quality
!!!RDF**harte: Chris Harte's syntax, used by MIREX
!!!RDF**phrase: newline = linebreak in original McGill transcription
!!!RDF**timestamp: McGill audio timestamp in seconds
!!!RDF**leadinstrument: original McGill primary instrumentation annotation
!!!RDT: 2017/01/12/
!!!ENC: Nathaniel Condit-Schultz
!!!EST: Awating manual error checking and editing.
